X:1
T:Title
%%score { ( 1 3 ) | ( 2 4 ) }
L:1/8
M:4/4
K:F
V:1 treble nm="Grand Piano"
V:3 treble 
V:2 bass 
V:4 bass 
V:1
 z4 z2[Q:1/4=100] F2 | [DB]3 F DB,DF | [B,FB]2 c2 d2 d2 | c2 [EG]2 [Gc]3 [Ed] |[M:3/4] c6 | %5
[M:1/4] F2 |[M:4/4] [DB]3 F DB,DF | [B,FB]2 c2 d2 [Be]2 | [Bf] [Bf]3 [A_e]2 [_EFA]2 | %9
[M:3/4] [DFB]6 |[M:1/4] [Fd]2 |[M:4/4] [^Fd]3 [FA] [FA]2 [Fc]2 | [DGB]3 [CDA] [B,DG]2 [B,Gd]2 | %13
 [Ge]3 [Fc] [FB]2 [EG]2 |[M:7/8] F-F-F- F- F3 |[M:1/4] F2 |[M:4/4] [DB]3 F DB,DF | %17
 [B,FB]2 c2 d2 [Be]2 | [Bf]dBG F2 c2 |[M:3/4] [DB]6 |] %20
V:2
 z4 z2 F,2 | [B,,F,]3 F, D,B,,D,F, | D,2[K:treble] [F,A,F]2 [B,F]2 [_A,B,F]2 | %3
 [G,B,E]2 [C,B,]2 [E,B,]3 [C,B,] |[M:3/4] [F,A,F]2 [G,B,]2 [A,C]2 |[M:1/4] [F,_E]2 | %6
[M:4/4] [B,,F,]3 F, D,B,,D,F, | D,2[K:treble] [F,A,F]2 [B,F]2[K:bass] [^F,^C]2 | %8
 [F,D] [F,D]3 [F,C]2 F,2 |[M:3/4] B,,6 |[M:1/4] [B,,B,]2 |[M:4/4] [D,A,]3 [D,D] [D,D]2 [D,A,]2 | %12
 G,,3 A,, B,,2 G,,2 | [C,B,]3 [C,A,] [C,G,]2 [C,B,]2 |[M:7/8] [A,C]2 z z z z2 |[M:1/4] [F,_E]2 | %16
[M:4/4] [B,,F,]3 F, D,B,,D,F, | D,2[K:treble] [F,A,F]2 [B,F]2[K:bass] [^F,^C]2 | %18
 [F,D]DB,G, F,2 [F,A,_E]2 |[M:3/4] [B,,B,]6 |] %20
V:3
 x8 | x8 | x8 | x8 |[M:3/4] z2 E2 _E2 |[M:1/4] x2 |[M:4/4] x8 | x8 | x8 |[M:3/4] x6 |[M:1/4] x2 | %11
[M:4/4] x8 | x8 | x8 |[M:7/8] z2 D2 _E3 |[M:1/4] x2 |[M:4/4] x8 | x8 | x8 |[M:3/4] x6 |] %20
V:4
 x8 | x8 | x2[K:treble] x6 | x8 |[M:3/4] x6 |[M:1/4] x2 |[M:4/4] x8 | x2[K:treble] x4[K:bass] x2 | %8
 x8 |[M:3/4] x6 |[M:1/4] x2 |[M:4/4] x8 | x8 | x8 |[M:7/8] F,2- [F,-B,]2 [F,C]3 |[M:1/4] x2 | %16
[M:4/4] x8 | x2[K:treble] x4[K:bass] x2 | x8 |[M:3/4] x6 |] %20

